X:28
T: Jump at the Sun
R: jig
M: 6/8
L: 1/8
K: Dmin
DFA ^G2A|DFA ^G2A|dAA dAA|~B2G FGE|
DFA ^G2A|DFA ^G2A|dAA BAG|FGE D2A:|
|:d2 d2 ef|e3 gfe|d2d2ef|e3 ABA|
dAA d ef|e3 gfe|dAA BAG|FGE D2A:|

%%newpage

